X: 32510
T: Planxty Burke
R: waltz
M: 3/4
K: Edorian
|:G2|E2 F2 GA|B4 A2|G2 A2 B2|A2 F2 D2|D2 F2 D2|d2 F2 D2|D2 F2 D2|A2 F2 D2|
EF G2 E2|B2 G2 E2|E2 G2 E2|e2 G2 E2|d4 d2|d2 e2 f2|d6|B4:|
|:de|f2 e2 d2|e2 d2 c2|d2 c2 B2|A2 B2 c2|d2 c2 B2|e2 d2 c2|d2 c2 B2|A2 F2 D2|
EF G2 E2|B2 G2 E2|E2 G2 E2|e2 G2 E2|d4 d2|d2 e2 f2|d6|B4:|
|:A2|Bc d2 d2|d2 ed c2|d2 ed cB|A2 F2 D2|e4 e2|e2 fe d2|e2 B2 c2|d4 e2|
F2 e2 d2|c2 B2 A2|Bc d2 B2|A2 F2 D2|d4 A2|Bc d2 B2|G6|E4:|

